ES3T1/30/aimg/fi.svg

<svg clip-rule="evenodd" fill-rule="evenodd" viewBox="0 0 207 167" xmlns="http://www.w3.org/2000/svg"><path d="m0-25.817c-4.697 0-8.504 3.807-8.504 8.504v8.809c0 4.697 3.807 8.504 8.504 8.504h16.008c4.696 0 8.504-3.807 8.504-8.504v-8.809c0-4.697-3.808-8.504-8.504-8.504z" fill="#f0e0ee" fill-rule="nonzero" transform="matrix(5.55556 0 0 5.55556 58.69723436 154.92156056)"/><path d="m384.886 592.343v-4.345h1.826v4.345h1.353v-5.357h-3.19v-.22c0-.704.308-1.276 1.243-1.276.506 0 .935.143 1.177.286l.308-1.023c-.308-.198-.946-.341-1.485-.341-1.584 0-2.585.88-2.585 2.321v.253h-.726v1.012h.726v4.345z" fill="#bd56a0" transform="matrix(5.55556 0 0 5.55556 -2039.81 -3184.67)"/><path d="m0-25.817c-4.697 0-8.504 3.807-8.504 8.504v8.809c0 4.697 3.807 8.504 8.504 8.504h16.008c4.696 0 8.504-3.807 8.504-8.504v-8.809c0-4.697-3.808-8.504-8.504-8.504z" fill="none" stroke="#d7a5cb" transform="matrix(5.55556 0 0 5.55556 58.69723436 154.92156056)"/></svg>

<?xml version="1.0" encoding="UTF-8" standalone="no"?>
<!DOCTYPE svg PUBLIC "-//W3C//DTD SVG 1.1//EN" "http://www.w3.org/Graphics/SVG/1.1/DTD/svg11.dtd">
<svg width="100%" height="100%" viewBox="0 0 207 167" version="1.1" xmlns="http://www.w3.org/2000/svg" xmlns:xlink="http://www.w3.org/1999/xlink" xml:space="preserve" xmlns:serif="http://www.serif.com/" style="fill-rule:evenodd;clip-rule:evenodd;">
    <g transform="matrix(1,0,0,1,-5671.7,-12751.6)">
        <g transform="matrix(5.55556,0,0,5.55556,3631.89,9566.93)">
            <g transform="matrix(1,0,0,1,377.731,601.126)">
                <path d="M0,-25.817C-4.697,-25.817 -8.504,-22.01 -8.504,-17.313L-8.504,-8.504C-8.504,-3.807 -4.697,0 0,0L16.008,0C20.704,0 24.512,-3.807 24.512,-8.504L24.512,-17.313C24.512,-22.01 20.704,-25.817 16.008,-25.817L0,-25.817Z" style="fill:rgb(240,224,238);fill-rule:nonzero;"/>
            </g>
        </g>
        <g transform="matrix(5.55556,0,0,5.55556,3631.89,9566.93)">
            <path d="M384.886,592.343L384.886,587.998L386.712,587.998L386.712,592.343L388.065,592.343L388.065,586.986L384.875,586.986L384.875,586.766C384.875,586.062 385.183,585.49 386.118,585.49C386.624,585.49 387.053,585.633 387.295,585.776L387.603,584.753C387.295,584.555 386.657,584.412 386.118,584.412C384.534,584.412 383.533,585.292 383.533,586.733L383.533,586.986L382.807,586.986L382.807,587.998L383.533,587.998L383.533,592.343L384.886,592.343Z" style="fill:rgb(189,86,160);"/>
        </g>
        <g transform="matrix(5.55556,0,0,5.55556,3631.89,9566.93)">
            <g transform="matrix(1,0,0,1,377.731,601.126)">
                <path d="M0,-25.817C-4.697,-25.817 -8.504,-22.01 -8.504,-17.313L-8.504,-8.504C-8.504,-3.807 -4.697,0 0,0L16.008,0C20.704,0 24.512,-3.807 24.512,-8.504L24.512,-17.313C24.512,-22.01 20.704,-25.817 16.008,-25.817L0,-25.817Z" style="fill:none;fill-rule:nonzero;stroke:rgb(215,165,203);stroke-width:1px;"/>
            </g>
        </g>
    </g>
</svg>
